assets/images/logo.svg

<?xml version="1.0" encoding="UTF-8" standalone="no"?>
<!DOCTYPE svg PUBLIC "-//W3C//DTD SVG 1.1//EN" "http://www.w3.org/Graphics/SVG/1.1/DTD/svg11.dtd">
<svg width="100%" height="100%" viewBox="0 0 4196 814" version="1.1" xmlns="http://www.w3.org/2000/svg" xmlns:xlink="http://www.w3.org/1999/xlink" xml:space="preserve" xmlns:serif="http://www.serif.com/" style="fill-rule:evenodd;clip-rule:evenodd;stroke-linejoin:round;stroke-miterlimit:2;">
    <path d="M887.71,581.33C887.596,581.332 887.482,581.333 887.367,581.333C874.805,581.333 864.467,570.995 864.467,558.433C864.467,558.318 864.468,558.204 864.47,558.09L864.47,255.47C864.47,248.617 866.707,243.027 871.18,238.7C875.593,234.408 881.555,232.07 887.71,232.22L977.11,232.22C999.47,232.22 1019.29,237.137 1036.57,246.97C1053.6,256.561 1067.62,270.731 1077.02,287.87C1086.7,305.29 1091.54,325.333 1091.55,348C1091.55,369.753 1086.71,389.123 1077.02,406.11C1067.53,422.897 1053.51,436.684 1036.57,445.89C1019.28,455.43 999.463,460.197 977.11,460.19L911,460.19L911,558.09C911.151,564.248 908.814,570.214 904.52,574.63C900.173,579.103 894.57,581.337 887.71,581.33ZM911,417.28L977.15,417.28C990.863,417.28 1002.93,414.3 1013.36,408.34C1023.64,402.532 1032.14,394.033 1037.95,383.76C1043.9,373.333 1046.88,361.413 1046.89,348C1046.89,333.687 1043.91,321.093 1037.95,310.22C1032.22,299.595 1023.72,290.714 1013.36,284.52C1002.93,278.26 990.857,275.13 977.15,275.13L911,275.13L911,417.28Z" style="fill:rgb(48,70,87);fill-rule:nonzero;"/>
    <path d="M1231.46,583.12C1209.7,583.12 1190.18,577.68 1172.9,566.8C1155.6,555.919 1141.49,540.65 1132,522.55C1122,503.93 1117,482.847 1117,459.3C1117,435.753 1122.44,414.597 1133.31,395.83C1143.88,377.364 1159.15,362.017 1177.56,351.35C1196.2,340.45 1217.15,335 1240.4,335C1263.65,335 1284.52,340.45 1303,351.35C1321.3,362.072 1336.48,377.411 1347,395.83C1357.87,414.603 1363.31,435.76 1363.31,459.3L1345.88,459.3C1345.88,482.84 1340.88,503.923 1330.88,522.55C1321.39,540.641 1307.29,555.908 1290,566.8C1272.73,577.693 1253.21,583.133 1231.46,583.12ZM1240.4,542.89C1255.6,542.89 1269.16,539.24 1281.07,531.94C1292.98,524.647 1302.71,514.284 1309.24,501.94C1316.09,489.273 1319.51,475.043 1319.52,459.25C1319.52,443.157 1316.09,428.777 1309.24,416.11C1302.7,403.77 1292.98,393.407 1281.07,386.11C1269.15,378.823 1255.59,375.173 1240.4,375.16C1226.16,374.984 1212.15,378.776 1199.94,386.11C1187.91,393.386 1178.03,403.744 1171.34,416.11C1164.33,428.777 1160.82,443.157 1160.83,459.25C1160.83,475.05 1164.33,489.28 1171.34,501.94C1178.03,514.312 1187.9,524.672 1199.94,531.94C1212.15,539.278 1226.16,543.071 1240.4,542.89ZM1340.53,581.78C1340.31,581.786 1340.1,581.79 1339.88,581.79C1327.72,581.79 1317.72,571.786 1317.72,559.63C1317.72,559.413 1317.72,559.196 1317.73,558.98L1317.73,490.59L1326.22,443.21L1363.32,459.3L1363.32,559C1363.33,559.216 1363.33,559.433 1363.33,559.649C1363.33,571.806 1353.33,581.809 1341.17,581.809C1340.96,581.809 1340.74,581.806 1340.53,581.8L1340.53,581.78Z" style="fill:rgb(48,70,87);fill-rule:nonzero;"/>
    <path d="M1534.07,583.57C1513.51,583.57 1495.11,579.173 1478.87,570.38C1462.63,561.587 1449.82,548.697 1440.43,531.71C1431.04,514.73 1426.34,493.87 1426.34,469.13L1426.34,359.13C1426.34,346.622 1436.63,336.33 1449.14,336.33C1461.65,336.33 1471.94,346.622 1471.94,359.13L1471.94,469.13C1471.94,485.797 1475.07,499.58 1481.33,510.48C1487.15,520.948 1496.04,529.377 1506.81,534.62C1517.53,539.84 1529.6,542.447 1543.01,542.44C1555.82,542.44 1567.22,539.907 1577.21,534.84C1586.79,530.125 1595.02,523.049 1601.12,514.28C1607.03,505.774 1610.16,495.638 1610.06,485.28L1638.22,485.28C1638.22,503.76 1633.68,520.447 1624.59,535.34C1615.56,550.18 1602.76,562.365 1587.49,570.65C1571.83,579.27 1554.02,583.577 1534.07,583.57ZM1632.86,581.33C1632.64,581.336 1632.43,581.34 1632.21,581.34C1620.05,581.34 1610.05,571.336 1610.05,559.18C1610.05,558.963 1610.05,558.746 1610.06,558.53L1610.06,359.17C1610.06,352.317 1612.22,346.803 1616.54,342.63C1620.92,338.437 1626.8,336.179 1632.86,336.37C1639.71,336.37 1645.23,338.457 1649.4,342.63C1653.57,346.803 1655.66,352.317 1655.66,359.17L1655.66,558.53C1655.85,564.588 1653.59,570.474 1649.4,574.85C1645.22,579.17 1639.71,581.33 1632.86,581.33Z" style="fill:rgb(48,70,87);fill-rule:nonzero;"/>
    <path d="M1794.22,581.33C1781.76,581.53 1769.55,577.772 1759.36,570.6C1749.22,563.447 1741.32,553.687 1735.67,541.32C1730.02,528.953 1727.18,514.727 1727.17,498.64L1727.17,254.57C1727.17,248.023 1729.26,242.66 1733.43,238.48C1737.6,234.3 1742.97,232.213 1749.52,232.22C1756.07,232.22 1761.43,234.307 1765.62,238.48C1769.81,242.653 1771.89,248.017 1771.87,254.57L1771.87,498.64C1771.87,509.66 1773.96,518.747 1778.13,525.9C1782.3,533.053 1787.67,536.63 1794.22,536.63L1805.4,536.63C1810.93,536.447 1816.26,538.745 1819.93,542.89C1823.65,547.07 1825.51,552.433 1825.51,558.98C1825.51,565.527 1822.67,570.89 1817,575.07C1811.34,579.25 1804.04,581.337 1795.1,581.33L1794.22,581.33Z" style="fill:rgb(48,70,87);fill-rule:nonzero;"/>
    <g transform="matrix(1,0,0,1,-399.205,-4.46425)">
        <path d="M2527.3,585.8C2508.75,585.887 2490.31,582.865 2472.76,576.86C2456.3,571.373 2441,562.897 2427.62,551.86C2414.8,541.127 2405.41,528.76 2399.45,514.76C2396.47,508.5 2396.55,502.687 2399.68,497.32C2402.81,491.953 2408.1,488.513 2415.55,487C2420.96,485.822 2426.61,486.699 2431.41,489.46C2436.64,492.309 2440.8,496.782 2443.26,502.2C2446.84,509.653 2452.73,516.507 2460.92,522.76C2469.92,529.437 2479.96,534.574 2490.64,537.96C2502.47,541.869 2514.85,543.831 2527.3,543.77C2540.78,543.912 2554.18,541.643 2566.86,537.07C2578.93,532.597 2588.68,526.113 2596.13,517.62C2603.58,509.127 2607.3,498.623 2607.31,486.11C2607.31,470.317 2601.13,456.16 2588.76,443.64C2576.39,431.12 2556.06,423.373 2527.76,420.4C2490.81,416.82 2461.76,405.943 2440.6,387.77C2419.44,369.597 2408.86,347.097 2408.86,320.27C2408.86,300.603 2414.37,283.917 2425.4,270.21C2436.43,256.503 2451.4,246.073 2470.32,238.92C2489.24,231.767 2510.32,228.19 2533.57,228.19C2551.75,228.19 2567.62,230.723 2581.18,235.79C2594.22,240.547 2606.26,247.666 2616.72,256.79C2627.06,265.984 2635.95,276.684 2643.09,288.53C2647.26,295.077 2648.97,301.26 2648.23,307.08C2647.59,312.723 2644.36,317.761 2639.51,320.71C2634.08,324.253 2627.31,325.078 2621.19,322.94C2614.96,321.121 2609.67,316.953 2606.44,311.32C2601.96,303.05 2596.06,295.636 2589,289.42C2581.87,283.303 2573.69,278.532 2564.86,275.34C2555.62,271.92 2544.74,270.207 2532.23,270.2C2510.18,269.9 2491.7,273.997 2476.8,282.49C2461.9,290.983 2454.45,304.02 2454.46,321.6C2454.48,330.627 2456.87,339.493 2461.38,347.31C2466,355.51 2474.49,362.587 2486.86,368.54C2499.23,374.493 2517.03,378.663 2540.28,381.05C2575.74,384.63 2603.38,395.433 2623.2,413.46C2643.02,431.487 2652.93,455.253 2652.92,484.76C2652.92,501.74 2649.42,516.49 2642.42,529.01C2635.47,541.463 2625.85,552.227 2614.26,560.53C2602.09,569.209 2588.47,575.644 2574.03,579.53C2558.81,583.729 2543.09,585.838 2527.3,585.8Z" style="fill:rgb(48,70,87);fill-rule:nonzero;"/>
    </g>
    <g transform="matrix(1,0,0,1,-399.205,-4.46425)">
        <path d="M2830.36,583.12C2806.51,583.12 2785.27,577.68 2766.66,566.8C2748.35,556.251 2733.22,540.964 2722.85,522.55C2712.28,503.93 2707,482.847 2707,459.3C2707,435.16 2712.22,413.703 2722.65,394.93C2732.65,376.611 2747.5,361.388 2765.56,350.93C2783.73,340.31 2804.58,335 2828.12,335C2845.7,335 2861.79,338.353 2876.4,345.06C2891.01,351.767 2904.12,361.823 2915.74,375.23C2919.9,379.997 2921.39,384.913 2920.2,389.98C2919.01,395.047 2915.74,399.517 2910.37,403.39C2906.4,406.336 2901.33,407.4 2896.51,406.3C2891.22,405.133 2886.39,402.409 2882.66,398.48C2868.05,382.987 2849.87,375.237 2828.12,375.23C2812.92,375.23 2799.51,378.733 2787.89,385.74C2776.25,392.762 2766.8,402.907 2760.63,415.02C2754.07,427.527 2750.79,442.277 2750.79,459.27C2750.79,475.357 2754.14,489.66 2760.85,502.18C2767.3,514.436 2776.96,524.713 2788.79,531.91C2800.7,539.21 2814.55,542.86 2830.36,542.86C2839.66,543.019 2848.94,541.737 2857.85,539.06C2865.76,536.519 2873.12,532.497 2879.53,527.21C2884.29,523.337 2889.21,521.177 2894.28,520.73C2899.14,520.225 2904.01,521.766 2907.69,524.98C2912.75,529.16 2915.58,533.853 2916.18,539.06C2916.78,544.267 2914.99,548.96 2910.82,553.14C2889.36,573.133 2862.54,583.127 2830.36,583.12Z" style="fill:rgb(48,70,87);fill-rule:nonzero;"/>
    </g>
    <g transform="matrix(1,0,0,1,-399.205,-4.46425)">
        <path d="M3099,583.12C3074.87,583.12 3053.56,577.83 3035.08,567.25C3016.83,556.901 3001.75,541.747 2991.5,523.44C2980.92,504.82 2975.63,483.44 2975.63,459.3C2975.63,434.867 2980.92,413.337 2991.5,394.71C3001.76,376.406 3016.83,361.253 3035.08,350.9C3053.56,340.3 3074.87,335 3099,335C3122.84,335 3144,340.29 3162.48,350.87C3180.73,361.227 3195.8,376.379 3206.06,394.68C3216.64,413.307 3221.93,434.837 3221.93,459.27C3221.93,483.41 3216.72,504.79 3206.29,523.41C3196.16,541.733 3181.15,556.899 3162.93,567.22C3144.45,577.82 3123.14,583.12 3099,583.12ZM3099,542.89C3114.5,542.89 3128.21,539.313 3140.13,532.16C3151.97,525.079 3161.64,514.871 3168.07,502.66C3174.74,490.14 3178.07,475.687 3178.07,459.3C3178.07,442.913 3174.74,428.387 3168.07,415.72C3161.69,403.415 3152.02,393.122 3140.13,386C3128.21,378.847 3114.5,375.27 3099,375.27C3083.5,375.27 3069.79,378.847 3057.88,386C3045.96,393.152 3036.22,403.436 3029.72,415.73C3022.86,428.397 3019.43,442.923 3019.44,459.31C3019.45,475.697 3022.87,490.15 3029.72,502.67C3036.27,514.866 3046,525.062 3057.88,532.17C3069.8,539.317 3083.51,542.89 3099,542.89Z" style="fill:rgb(48,70,87);fill-rule:nonzero;"/>
    </g>
    <g transform="matrix(1,0,0,1,-399.205,-4.46425)">
        <path d="M3279.59,384.2C3273.33,384.2 3268.26,382.413 3264.39,378.84C3260.59,375.435 3258.47,370.531 3258.58,365.43C3258.58,359.47 3260.52,354.703 3264.39,351.13C3268.26,347.557 3273.33,345.767 3279.59,345.76L3382.85,345.76C3389.1,345.76 3394.17,347.55 3398.04,351.13C3401.91,354.71 3403.85,359.477 3403.85,365.43C3403.96,370.53 3401.84,375.432 3398.04,378.84C3394.17,382.42 3389.11,384.207 3382.85,384.2L3279.59,384.2ZM3378.82,581.33C3364.59,581.52 3350.61,577.558 3338.59,569.93C3326.61,562.265 3316.89,551.542 3310.43,538.87C3303.57,525.757 3300.14,511.003 3300.15,494.61L3300.15,281.39C3300.15,274.837 3302.24,269.473 3306.41,265.3C3310.58,261.127 3315.95,259.027 3322.5,259C3329.05,259 3334.42,261.087 3338.59,265.26C3342.76,269.433 3344.85,274.797 3344.85,281.35L3344.85,494.61C3344.85,506.537 3348.13,516.52 3354.68,524.56C3361.23,532.6 3369.28,536.623 3378.82,536.63L3394,536.63C3399.25,536.581 3404.25,538.879 3407.63,542.89C3411.36,547.07 3413.22,552.433 3413.22,558.98C3413.38,565.189 3410.65,571.133 3405.85,575.07C3400.93,579.25 3394.6,581.337 3386.85,581.33L3378.82,581.33Z" style="fill:rgb(48,70,87);fill-rule:nonzero;"/>
    </g>
    <g transform="matrix(1,0,0,1,-399.205,-4.46425)">
        <path d="M3458.83,384.2C3452.57,384.2 3447.5,382.413 3443.63,378.84C3439.83,375.435 3437.71,370.531 3437.82,365.43C3437.82,359.47 3439.76,354.703 3443.63,351.13C3447.5,347.557 3452.57,345.767 3458.83,345.76L3562.09,345.76C3568.34,345.76 3573.41,347.55 3577.29,351.13C3581.15,354.7 3583.1,359.47 3583.1,365.43C3583.2,370.529 3581.08,375.429 3577.29,378.84C3573.41,382.42 3568.34,384.207 3562.09,384.2L3458.83,384.2ZM3558.06,581.33C3543.83,581.52 3529.85,577.558 3517.83,569.93C3505.85,562.265 3496.13,551.542 3489.67,538.87C3482.81,525.757 3479.38,511.003 3479.39,494.61L3479.39,281.39C3479.39,274.837 3481.48,269.473 3485.65,265.3C3489.82,261.127 3495.19,259.04 3501.74,259.04C3508.29,259.04 3513.66,261.127 3517.83,265.3C3522,269.473 3524.09,274.837 3524.09,281.39L3524.09,494.61C3524.09,506.537 3527.37,516.52 3533.93,524.56C3540.49,532.6 3548.53,536.623 3558.06,536.63L3573.26,536.63C3578.51,536.579 3583.51,538.877 3586.89,542.89C3590.62,547.07 3592.48,552.433 3592.48,558.98C3592.64,565.189 3589.91,571.133 3585.11,575.07C3580.19,579.25 3573.86,581.337 3566.11,581.33L3558.06,581.33Z" style="fill:rgb(48,70,87);fill-rule:nonzero;"/>
    </g>
    <g transform="matrix(1.33028,0,0,1.33028,0,66.4477)">
        <path d="M475.663,387.388C453.677,424.075 422.764,454.803 385.902,476.527L385.456,476.791C347.494,499.181 303.232,512 256,512C208.583,512 164.16,499.081 126.098,476.527L125.664,476.271C88.857,454.461 57.982,423.688 36.079,386.957L35.811,386.508C13.057,348.311 0,303.668 0,256C0,208.145 13.159,163.339 36.079,125.043L36.337,124.612C58.323,87.925 89.236,57.197 126.098,35.473L126.544,35.209C164.506,12.819 208.768,0 256,0C303.417,0 347.84,12.919 385.902,35.473L386.336,35.729C423.143,57.539 454.018,88.312 475.921,125.043L476.189,125.492C498.943,163.689 512,208.332 512,256C512,303.855 498.841,348.661 475.921,386.957L475.663,387.388ZM232.719,173.784C225.991,161.673 216.057,151.656 204.017,144.84C191.836,137.897 177.807,134.382 162.215,134.382L103.996,134.382C103.857,134.379 103.718,134.377 103.579,134.377C93.513,134.377 85.229,142.684 85.229,152.777C85.229,152.917 85.231,153.056 85.234,153.196L85.234,358.398C85.232,358.533 85.23,358.667 85.23,358.801C85.23,369.127 93.703,377.623 104.001,377.623C114.298,377.623 122.771,369.127 122.771,358.801C122.771,358.667 122.77,358.533 122.767,358.398L122.767,296.651L162.215,296.651C177.816,296.651 191.879,293.127 204.017,286.193C216.024,279.409 225.949,269.453 232.71,257.412C239.523,245.352 243.019,231.388 243.019,215.951C242.985,200.144 239.531,185.956 232.719,173.784ZM407.321,257.535C394.796,245.389 375.708,237.395 350.623,233.768C338.175,231.985 328.287,229.289 321.106,225.748C314.499,222.475 309.783,218.667 307.111,214.412C304.455,210.255 303.066,205.41 303.117,200.474C303.117,190.748 306.553,183.607 313.658,178.636C321.466,173.175 332.188,170.41 345.537,170.392C353.175,170.573 359.712,171.667 364.961,173.64C369.805,175.385 374.273,178.043 378.122,181.471C381.658,184.687 384.782,188.329 387.426,192.316C392.406,200.789 403.128,204.107 412.003,199.922L412.527,199.655C416.801,197.301 419.873,193.223 420.963,188.457C421.728,185.166 421.865,180.015 418.223,174.157C413.622,166.799 407.901,160.209 401.265,154.628C385.762,141.574 366.08,134.539 345.838,134.815C330.89,134.815 317.403,137.4 305.737,142.396C293.762,147.564 284.183,155.033 277.285,164.621C270.249,174.398 266.675,185.993 266.675,199.078C266.675,217.323 273.814,232.907 287.877,245.415C301.45,257.475 320.281,265.03 343.802,267.812C360.305,269.88 372.383,274.574 379.72,281.759C386.859,288.771 390.329,296.86 390.329,306.499C390.329,314.166 388.611,320.403 384.96,325.563C381.137,330.967 375.843,335.154 369.712,337.623C362.882,340.543 354.85,342.025 345.838,342.025C338.104,342.104 330.402,341.008 322.996,338.777C316.741,336.909 310.884,333.898 305.72,329.896C301.363,326.549 297.763,322.312 295.162,317.465C293.235,313.536 290.095,310.333 286.21,308.334C282.209,306.195 277.533,305.692 273.17,306.93C266.529,308.782 263.179,312.71 261.538,315.673C258.961,320.291 258.961,325.64 261.486,330.757C266.009,340.347 272.551,348.841 280.661,355.653C289.277,362.896 299.19,368.431 309.869,371.96C321.481,375.807 333.644,377.719 345.873,377.619C356.39,377.681 366.855,376.124 376.902,373.002C386.336,370.114 395.15,365.483 402.889,359.348C410.454,353.258 416.504,345.487 420.56,336.649C424.683,327.742 426.771,317.5 426.771,306.224C426.728,286.411 420.199,270.026 407.321,257.535ZM162.215,259.928L122.767,259.928L122.767,171.2L162.215,171.2C170.875,171.2 178.331,173.069 185.006,176.92C191.498,180.584 196.852,185.981 200.469,192.512C204.189,199.136 206.071,207.044 206.071,216.012C206.194,223.994 204.249,231.872 200.427,238.874C196.857,245.357 191.531,250.697 185.066,254.277C178.064,258.104 170.188,260.04 162.215,259.893L162.215,259.928Z" style="fill:rgb(48,70,87);"/>
    </g>
</svg>

<svg id="Layer_1" data-name="Layer 1" xmlns="http://www.w3.org/2000/svg" viewBox="0 0 4196 814">
  <defs>
    <style>
      .cls-1 {
        fill: #fff;
      }
    </style>
  </defs>
  <polygon class="cls-1" points="257.75 627.28 204.8 813.76 597.13 603.84 650.08 417.35 257.75 627.28" />
  <polygon class="cls-1" points="0.24 456.34 189.11 809.3 242.05 622.82 36.13 237.96 0.24 456.34" />
  <path class="cls-1"
    d="M248.88,209.3a40.08,40.08,0,0,0-54.18-16.41L114.21,236,152,306.56l80.49-43.07A40.07,40.07,0,0,0,248.88,209.3Z" />
  <circle class="cls-1" cx="389.64" cy="163.42" r="65.66" transform="translate(-1.43 323.39) rotate(-45)" />
  <path class="cls-1"
    d="M441.68.23,38.83,215.79,251.19,612.67,654,397.11ZM347.09,83.9a89.34,89.34,0,0,1,71.27-6L405,52.92l21.63-11.57,85.1,159.05L490.09,212l-13.37-25a89.38,89.38,0,0,1-44.52,56,90.2,90.2,0,0,1-85.11-159ZM81,225.91l3.17-1.71,98.95-52.94a64.57,64.57,0,0,1,60.92,113.86l-80.5,43.07,24.19,45.2L166.11,385ZM392,463.73A90.19,90.19,0,0,1,223.31,492.6l-42.55-79.53,21.63-11.57L244.94,481a65.66,65.66,0,0,0,115.79-61.95l-42.55-79.53L339.81,328l42.55,79.52A89.37,89.37,0,0,1,392,463.73Zm60.89,8.12-.09,0-85.06-159,20.18-10.79,74.4,139.05,138.88-74.31L612,387.06,453,472.12Z" />
  <path class="cls-1"
    d="M887.71,581.33a22.9,22.9,0,0,1-23.24-23.24V255.47q0-10.28,6.71-16.77a22.91,22.91,0,0,1,16.53-6.48h89.4q33.54,0,59.46,14.75a104.77,104.77,0,0,1,40.45,40.9Q1091.54,314,1091.55,348q0,32.63-14.53,58.11a102.89,102.89,0,0,1-40.45,39.78q-25.93,14.31-59.46,14.3H911v97.9a22.92,22.92,0,0,1-6.48,16.54Q898,581.34,887.71,581.33ZM911,417.28h66.15q20.57,0,36.21-8.94a65,65,0,0,0,24.59-24.58q8.92-15.64,8.94-35.76,0-21.47-8.94-37.78a67,67,0,0,0-24.59-25.7q-15.65-9.39-36.21-9.39H911Z" />
  <path class="cls-1"
    d="M1231.46,583.12q-32.64,0-58.56-16.32a115.78,115.78,0,0,1-40.9-44.25q-15-27.93-15-63.25t16.31-63.47a120.73,120.73,0,0,1,44.25-44.48Q1205.52,335,1240.4,335T1303,351.35a121.27,121.27,0,0,1,44,44.48q16.31,28.16,16.31,63.47h-17.43q0,35.31-15,63.25A116,116,0,0,1,1290,566.8Q1264.09,583.14,1231.46,583.12Zm8.94-40.23q22.8,0,40.67-10.95a77.89,77.89,0,0,0,28.17-30q10.27-19,10.28-42.69,0-24.14-10.28-43.14a78,78,0,0,0-28.17-30q-17.88-10.93-40.67-10.95a76.73,76.73,0,0,0-40.46,10.95,79,79,0,0,0-28.6,30q-10.52,19-10.51,43.14,0,23.7,10.51,42.69a78.81,78.81,0,0,0,28.6,30A76.64,76.64,0,0,0,1240.4,542.89Zm100.13,38.89a22.16,22.16,0,0,1-22.8-22.8V490.59l8.49-47.38,37.1,16.09V559a22.16,22.16,0,0,1-22.79,22.8Z" />
  <path class="cls-1"
    d="M1534.07,583.57q-30.84,0-55.2-13.19t-38.44-38.67q-14.09-25.47-14.09-62.58v-110a22.8,22.8,0,1,1,45.6,0v110q0,25,9.39,41.35a58.4,58.4,0,0,0,25.48,24.14q16.08,7.83,36.2,7.82,19.21,0,34.2-7.6a63,63,0,0,0,23.91-20.56,50,50,0,0,0,8.94-29h28.16q0,27.72-13.63,50.06a98.31,98.31,0,0,1-37.1,35.31Q1564,583.58,1534.07,583.57Zm98.79-2.24a22.16,22.16,0,0,1-22.8-22.8V359.17q0-10.28,6.48-16.54a22.56,22.56,0,0,1,16.32-6.26q10.28,0,16.54,6.26t6.26,16.54V558.53a22.56,22.56,0,0,1-6.26,16.32Q1643.13,581.33,1632.86,581.33Z" />
  <path class="cls-1"
    d="M1794.22,581.33a58.93,58.93,0,0,1-34.86-10.73q-15.21-10.73-23.69-29.28t-8.5-42.68V254.57q0-9.82,6.26-16.09t16.09-6.26q9.82,0,16.1,6.26t6.25,16.09V498.64q0,16.53,6.26,27.26t16.09,10.73h11.18a18.58,18.58,0,0,1,14.53,6.26q5.58,6.27,5.58,16.09T1817,575.07q-8.49,6.27-21.9,6.26Z" />
  <path class="cls-1"
    d="M2088.34,585.8q-31.29,0-55.65-13.63a96.94,96.94,0,0,1-38-38q-13.65-24.36-13.64-55.65,0-10.27,6.71-16.76a22.88,22.88,0,0,1,16.54-6.48q10.28,0,16.76,6.48t6.48,16.76q0,19.23,7.82,34a58.09,58.09,0,0,0,21.46,23q13.64,8.28,31.51,8.27t31.74-8.27a57.64,57.64,0,0,0,21.68-23q7.81-14.75,7.82-34v-223q0-10.28,6.48-16.77a22.17,22.17,0,0,1,16.32-6.48q10.27,0,17,6.48t6.7,16.77V478.52q0,31.29-13.86,55.65a99,99,0,0,1-38,38Q2120.09,585.81,2088.34,585.8Z" />
  <path class="cls-1"
    d="M2527.3,585.8a166.09,166.09,0,0,1-54.54-8.94,141.09,141.09,0,0,1-45.14-25q-19.23-16.1-28.17-37.1-4.47-9.39.23-17.44T2415.55,487a22.28,22.28,0,0,1,15.86,2.46,27.45,27.45,0,0,1,11.85,12.74q5.37,11.18,17.66,20.56a101.17,101.17,0,0,0,29.72,15.2,115,115,0,0,0,36.66,5.81,113.09,113.09,0,0,0,39.56-6.7q18.1-6.71,29.27-19.45t11.18-31.51q0-23.69-18.55-42.47t-61-23.24q-55.42-5.37-87.16-32.63t-31.74-67.5q0-29.5,16.54-50.06t44.92-31.29q28.38-10.73,63.25-10.73,27.27,0,47.61,7.6a112.94,112.94,0,0,1,35.54,21,137.53,137.53,0,0,1,26.37,31.74q6.25,9.82,5.14,18.55a18.38,18.38,0,0,1-8.72,13.63,20.9,20.9,0,0,1-18.32,2.23,25.11,25.11,0,0,1-14.75-11.62,79.83,79.83,0,0,0-17.44-21.9,77.52,77.52,0,0,0-24.14-14.08q-13.86-5.13-32.63-5.14-33.08-.45-55.43,12.29t-22.34,39.11a51.64,51.64,0,0,0,6.92,25.71q6.93,12.3,25.48,21.23t53.42,12.51q53.19,5.37,82.92,32.41t29.72,71.3q0,25.47-10.5,44.25a96.78,96.78,0,0,1-28.16,31.52,125.46,125.46,0,0,1-40.23,19A174.12,174.12,0,0,1,2527.3,585.8Z" />
  <path class="cls-1"
    d="M2830.36,583.12q-35.78,0-63.7-16.32a117.7,117.7,0,0,1-43.81-44.25Q2707,494.62,2707,459.3q0-36.21,15.65-64.37a113.94,113.94,0,0,1,42.91-44Q2792.81,335,2828.12,335q26.37,0,48.28,10.06t39.34,30.17q6.24,7.15,4.46,14.75t-9.83,13.41a16.94,16.94,0,0,1-13.86,2.91,27.18,27.18,0,0,1-13.85-7.82q-21.91-23.24-54.54-23.25-22.8,0-40.23,10.51a72.79,72.79,0,0,0-27.26,29.28q-9.84,18.76-9.84,44.25,0,24.13,10.06,42.91a76.5,76.5,0,0,0,27.94,29.73q17.86,10.95,41.57,10.95a90.22,90.22,0,0,0,27.49-3.8,65.6,65.6,0,0,0,21.68-11.85q7.14-5.81,14.75-6.48a17.63,17.63,0,0,1,13.41,4.25q7.59,6.27,8.49,14.08t-5.36,14.08Q2878.63,583.13,2830.36,583.12Z" />
  <path class="cls-1"
    d="M3099,583.12q-36.2,0-63.92-15.87a114.91,114.91,0,0,1-43.58-43.81q-15.87-27.93-15.87-64.14,0-36.65,15.87-64.59a115,115,0,0,1,43.58-43.81Q3062.8,335,3099,335q35.76,0,63.48,15.87a115.11,115.11,0,0,1,43.58,43.81q15.87,27.94,15.87,64.59,0,36.21-15.64,64.14a113.45,113.45,0,0,1-43.36,43.81Q3135.21,583.12,3099,583.12Zm0-40.23q23.25,0,41.13-10.73a75.15,75.15,0,0,0,27.94-29.5q10-18.78,10-43.36t-10-43.58A74.71,74.71,0,0,0,3140.13,386q-17.88-10.73-41.13-10.73T3057.88,386a76.15,76.15,0,0,0-28.16,29.73q-10.29,19-10.28,43.58t10.28,43.36a76.62,76.62,0,0,0,28.16,29.5Q3075.76,542.89,3099,542.89Z" />
  <path class="cls-1"
    d="M3279.59,384.2q-9.39,0-15.2-5.36a17.48,17.48,0,0,1-5.81-13.41q0-8.94,5.81-14.3t15.2-5.37h103.26q9.38,0,15.19,5.37t5.81,14.3a17.52,17.52,0,0,1-5.81,13.41q-5.8,5.37-15.19,5.36Zm99.23,197.13a73.24,73.24,0,0,1-40.23-11.4,80,80,0,0,1-28.16-31.06q-10.29-19.67-10.28-44.26V281.39q0-9.83,6.26-16.09T3322.5,259q9.83,0,16.09,6.26t6.26,16.09V494.61q0,17.89,9.83,29.95t24.14,12.07H3394a17.61,17.61,0,0,1,13.63,6.26q5.59,6.27,5.59,16.09a20.15,20.15,0,0,1-7.37,16.09q-7.38,6.27-19,6.26Z" />
  <path class="cls-1"
    d="M3458.83,384.2q-9.39,0-15.2-5.36a17.48,17.48,0,0,1-5.81-13.41q0-8.94,5.81-14.3t15.2-5.37h103.26q9.38,0,15.2,5.37c3.86,3.57,5.81,8.34,5.81,14.3a17.55,17.55,0,0,1-5.81,13.41q-5.82,5.37-15.2,5.36Zm99.23,197.13a73.24,73.24,0,0,1-40.23-11.4,80,80,0,0,1-28.16-31.06q-10.29-19.67-10.28-44.26V281.39q0-9.83,6.26-16.09t16.09-6.26q9.83,0,16.09,6.26t6.26,16.09V494.61q0,17.89,9.84,29.95t24.13,12.07h15.2a17.6,17.6,0,0,1,13.63,6.26q5.59,6.27,5.59,16.09a20.15,20.15,0,0,1-7.37,16.09q-7.38,6.27-19,6.26Z" />
  <path class="cls-1"
    d="M3807,581.33a22.9,22.9,0,0,1-23.25-23.24V255.47q0-10.28,6.71-16.77a22.92,22.92,0,0,1,16.54-6.48q10.27,0,16.76,6.48t6.48,16.77V558.09a22.88,22.88,0,0,1-6.48,16.54Q3817.32,581.34,3807,581.33Z" />
  <path class="cls-1"
    d="M4039.47,581.33q-14.31,0-21-14.75l-131-299.49q-6.27-15.19-1.34-25t18.77-9.84q15.64,0,21.46,13.86l114.88,275.8h-4.92l117.12-275.8q3.57-8,8.27-11t12.74-2.91q13.41,0,18.55,9.61t-.23,21.24L4060.48,566.58a26.41,26.41,0,0,1-8.27,10.95A20.8,20.8,0,0,1,4039.47,581.33Z" />
</svg>
